svgs/duotone/coins.svg

<svg xmlns="http://www.w3.org/2000/svg" viewBox="0 0 512 512"><!--! Font Awesome Pro 6.0.0-alpha3 by @fontawesome - https://fontawesome.com License - https://fontawesome.com/license (Commercial License) --><defs><style>.fa-secondary{opacity:.4}</style></defs><path class="fa-primary" d="M0 405.3V448c0 35.25 85.1 64 192 64c105.1 0 192-28.75 192-64v-42.75C342.8 434.4 267.3 448 192 448S41.25 434.4 0 405.3zM0 300.4V352c0 35.25 85.1 64 192 64c105.1 0 192-28.75 192-64V300.4C342.8 334.4 267.1 352 192 352S41.25 334.4 0 300.4zM192 320c105.1 0 192-35.75 192-80S297.1 160 192 160C85.1 160 0 195.8 0 240S85.1 320 192 320z"/><path class="fa-secondary" d="M320 128c105.1 0 192-28.75 192-64s-86-64-192-64C213.1 0 128 28.75 128 64S213.1 128 320 128zM416 311.4C473.3 300.2 512 279.8 512 256V213.2c-23.25 16.5-57.25 27.63-96 34.5V311.4zM411.2 216.2C471.3 205.5 512 184.2 512 160V117.2c-35.5 25.13-96.5 38.63-160.8 41.88C380.8 173.4 402.5 192.6 411.2 216.2z"/></svg>

<svg xmlns="http://www.w3.org/2000/svg" viewBox="0 0 512 512"><!-- Font Awesome Pro 5.15.3 by @fontawesome - https://fontawesome.com License - https://fontawesome.com/license (Commercial License) --><defs><style>.fa-secondary{opacity:.4}</style></defs><path d="M416 311.4c57.3-11.1 96-31.7 96-55.4v-42.7c-23.2 16.4-57.3 27.6-96 34.5zm-4.7-95.1c60-10.8 100.7-32 100.7-56.3v-42.7c-35.5 25.1-96.5 38.6-160.7 41.8 29.5 14.3 51.2 33.5 60 57.2zM512 64c0-35.3-86-64-192-64S128 28.7 128 64s86 64 192 64 192-28.7 192-64z" class="fa-secondary"/><path d="M192 320c106 0 192-35.8 192-80s-86-80-192-80S0 195.8 0 240s86 80 192 80zM0 405.3V448c0 35.3 86 64 192 64s192-28.7 192-64v-42.7C342.7 434.4 267.2 448 192 448S41.3 434.4 0 405.3zm0-104.9V352c0 35.3 86 64 192 64s192-28.7 192-64v-51.6c-41.3 34-116.9 51.6-192 51.6S41.3 334.4 0 300.4z" class="fa-primary"/></svg>
